assets/Drum/Flat/drum_flat.svg

<svg width="32" height="32" viewBox="0 0 32 32" fill="none" xmlns="http://www.w3.org/2000/svg">
<path d="M25.6588 18.2389C25.6588 18.2489 25.6589 18.2589 25.6589 18.2689C25.6589 23.6389 21.3089 28.9989 15.9289 28.9989C10.5489 28.9989 6.19885 23.6389 6.19885 18.2689C6.19885 18.1196 6.20221 17.9713 6.20886 17.8239V13.1089H7.70707C9.43141 10.438 12.4669 8.69885 15.9289 8.69885C19.3908 8.69885 22.4263 10.438 24.1506 13.1089H25.6589V18.2389H25.6588Z" fill="#CA0B4A"/>
<path d="M8.35254 18.1564V25.909C8.35254 26.393 8.74492 26.7854 9.22894 26.7854C9.71296 26.7854 10.1053 26.393 10.1053 25.909V19.8612C9.4518 19.3688 8.8626 18.7956 8.35254 18.1564ZM15.0634 21.77C15.0628 21.7829 15.0625 21.7959 15.0625 21.809V28.819C15.0625 29.303 15.4549 29.6954 15.9389 29.6954C16.4229 29.6954 16.8153 29.303 16.8153 28.819V21.809C16.8153 21.7959 16.815 21.7829 16.8144 21.77C16.5261 21.7958 16.234 21.8089 15.9389 21.8089C15.6438 21.8089 15.3517 21.7958 15.0634 21.77ZM21.7726 19.8611V25.909C21.7726 26.393 22.165 26.7854 22.649 26.7854C23.133 26.7854 23.5254 26.393 23.5254 25.909V18.1562C23.0153 18.7954 22.4261 19.3686 21.7726 19.8611Z" fill="#D3D3D3"/>
<path d="M8.35254 18.1564V20.479C8.35254 20.963 8.74492 21.3554 9.22894 21.3554C9.71296 21.3554 10.1053 20.963 10.1053 20.479V19.8612C9.4518 19.3688 8.8626 18.7956 8.35254 18.1564ZM15.0625 21.7699V23.419C15.0625 23.903 15.4549 24.2954 15.9389 24.2954C16.4229 24.2954 16.8153 23.903 16.8153 23.419V21.7699C16.5266 21.7957 16.2343 21.8089 15.9389 21.8089C15.6435 21.8089 15.3512 21.7957 15.0625 21.7699ZM21.7726 19.8611V20.479C21.7726 20.963 22.165 21.3554 22.649 21.3554C23.133 21.3554 23.5254 20.963 23.5254 20.479V18.1562C23.0153 18.7954 22.4261 19.3686 21.7726 19.8611ZM15.9389 26.6125C16.4229 26.6125 16.8153 27.0049 16.8153 27.4889V29.2189C16.8153 29.703 16.4229 30.0953 15.9389 30.0953C15.4549 30.0953 15.0625 29.703 15.0625 29.2189V27.4889C15.0625 27.0049 15.4549 26.6125 15.9389 26.6125ZM23.5254 24.4589C23.5254 23.9749 23.133 23.5825 22.649 23.5825C22.165 23.5825 21.7726 23.9749 21.7726 24.4589V25.7289C21.7726 26.2129 22.165 26.6053 22.649 26.6053C23.133 26.6053 23.5254 26.2129 23.5254 25.7289V24.4589ZM9.22894 23.5725C9.71296 23.5725 10.1053 23.9649 10.1053 24.4489V25.7289C10.1053 26.2129 9.71296 26.6053 9.22894 26.6053C8.74492 26.6053 8.35254 26.2129 8.35254 25.7289V24.4489C8.35254 23.9649 8.74492 23.5725 9.22894 23.5725Z" fill="#FFB02E"/>
<path d="M15.9389 22.8089C21.2961 22.8089 25.6389 18.4661 25.6389 13.1089C25.6389 7.75177 21.2961 3.40894 15.9389 3.40894C10.5817 3.40894 6.23889 7.75177 6.23889 13.1089C6.23889 18.4661 10.5817 22.8089 15.9389 22.8089Z" fill="#FFE5D9"/>
<path d="M23.8789 13.0989C23.8789 8.71894 20.3189 5.15894 15.9389 5.15894C11.5589 5.15894 7.98889 8.72894 7.99889 13.0989C7.99889 17.4789 11.5589 21.0389 15.9389 21.0389C20.3189 21.0389 23.8789 17.4789 23.8789 13.0989ZM6.23889 13.1089C6.23889 7.74894 10.5789 3.40894 15.9389 3.40894C21.2889 3.40894 25.6389 7.74894 25.6389 13.1089C25.6389 18.4689 21.2989 22.8089 15.9389 22.8089C10.5789 22.8089 6.23889 18.4689 6.23889 13.1089ZM6.26886 19.309C6.78886 24.189 10.9189 27.989 15.9389 27.989C20.9489 27.989 25.0789 24.189 25.6089 19.309C25.6489 19.659 25.6689 20.009 25.6689 20.359C25.6689 25.739 21.3089 30.089 15.9389 30.089C10.5589 30.089 6.20886 25.729 6.20886 20.359C6.20886 19.999 6.22886 19.649 6.26886 19.309Z" fill="#D3D3D3"/>
<path d="M12.4888 13.3988L13.3988 12.4888L3.80885 2.32885C3.40885 1.89885 2.72885 1.88885 2.30885 2.30885C1.88885 2.72885 1.89885 3.40885 2.32885 3.80885L12.4888 13.3988ZM19.509 13.3988L18.599 12.4888L28.189 2.32885C28.589 1.89885 29.269 1.88885 29.689 2.30885C30.109 2.72885 30.099 3.40885 29.669 3.80885L19.509 13.3988Z" fill="#F3C07B"/>
<path d="M12.6188 14.4388C13.1188 14.9388 13.9388 14.9388 14.4388 14.4388C14.9388 13.9388 14.9388 13.1188 14.4388 12.6188L13.3688 11.5488C12.8688 11.0488 12.0488 11.0488 11.5488 11.5488C11.0488 12.0488 11.0488 12.8688 11.5488 13.3688L12.6188 14.4388ZM19.379 14.4388C18.879 14.9388 18.059 14.9388 17.559 14.4388C17.059 13.9388 17.059 13.1188 17.559 12.6188L18.629 11.5488C19.129 11.0488 19.949 11.0488 20.449 11.5488C20.949 12.0488 20.949 12.8688 20.449 13.3688L19.379 14.4388Z" fill="#F3AD61"/>
</svg>

<svg xmlns="http://www.w3.org/2000/svg" width="32" height="32" fill="none"><path fill="#CA0B4A" d="M25.659 18.239v.03c0 5.37-4.35 10.73-9.73 10.73-5.38 0-9.73-5.36-9.73-10.73 0-.15.003-.298.01-.445v-4.715h1.498c1.724-2.671 4.76-4.41 8.222-4.41 3.462 0 6.497 1.739 8.222 4.41h1.508v5.13Z"/><path fill="#D3D3D3" d="M8.353 18.156v7.753a.876.876 0 0 0 1.752 0v-6.048a9.748 9.748 0 0 1-1.752-1.705Zm6.71 3.614a.84.84 0 0 0 0 .039v7.01a.876.876 0 0 0 1.752 0v-7.01a.84.84 0 0 0 0-.039 9.822 9.822 0 0 1-1.752 0Zm6.71-1.909v6.048a.876.876 0 0 0 1.752 0v-7.753c-.51.64-1.099 1.213-1.752 1.705Z"/><path fill="#FFB02E" d="M8.353 18.156v2.323a.876.876 0 0 0 1.752 0v-.618a9.748 9.748 0 0 1-1.752-1.705Zm6.71 3.614v1.649a.876.876 0 0 0 1.752 0v-1.65a9.844 9.844 0 0 1-1.753 0Zm6.71-1.909v.618a.876.876 0 0 0 1.752 0v-2.323c-.51.64-1.099 1.213-1.752 1.705Zm-5.834 6.752c.484 0 .876.392.876.876v1.73a.876.876 0 1 1-1.753 0v-1.73c0-.484.393-.877.877-.877Zm7.586-2.154a.876.876 0 0 0-1.752 0v1.27a.876.876 0 0 0 1.752 0v-1.27ZM9.23 23.573c.484 0 .876.392.876.876v1.28a.876.876 0 1 1-1.752 0v-1.28c0-.484.392-.877.876-.877Z"/><path fill="#FFE5D9" d="M15.939 22.809c5.357 0 9.7-4.343 9.7-9.7 0-5.357-4.343-9.7-9.7-9.7-5.357 0-9.7 4.343-9.7 9.7 0 5.357 4.343 9.7 9.7 9.7Z"/><path fill="#D3D3D3" d="M23.879 13.099c0-4.38-3.56-7.94-7.94-7.94-4.38 0-7.95 3.57-7.94 7.94 0 4.38 3.56 7.94 7.94 7.94 4.38 0 7.94-3.56 7.94-7.94Zm-17.64.01c0-5.36 4.34-9.7 9.7-9.7 5.35 0 9.7 4.34 9.7 9.7 0 5.36-4.34 9.7-9.7 9.7-5.36 0-9.7-4.34-9.7-9.7Zm.03 6.2a9.724 9.724 0 0 0 9.67 8.68c5.01 0 9.14-3.8 9.67-8.68.04.35.06.7.06 1.05 0 5.38-4.36 9.73-9.73 9.73-5.38 0-9.73-4.36-9.73-9.73 0-.36.02-.71.06-1.05Z"/><path fill="#F3C07B" d="m12.489 13.399.91-.91-9.59-10.16c-.4-.43-1.08-.44-1.5-.02-.42.42-.41 1.1.02 1.5l10.16 9.59Zm7.02 0-.91-.91 9.59-10.16c.4-.43 1.08-.44 1.5-.02.42.42.41 1.1-.02 1.5l-10.16 9.59Z"/><path fill="#F3AD61" d="M12.619 14.439c.5.5 1.32.5 1.82 0s.5-1.32 0-1.82l-1.07-1.07c-.5-.5-1.32-.5-1.82 0s-.5 1.32 0 1.82l1.07 1.07Zm6.76 0c-.5.5-1.32.5-1.82 0s-.5-1.32 0-1.82l1.07-1.07c.5-.5 1.32-.5 1.82 0s.5 1.32 0 1.82l-1.07 1.07Z"/></svg>
